X:311
T: Kloesterlein oder Abtweihe
N: A0360
O: Europa, Mitteleuropa, Deutschland
N: J. Ott III Nuernberg 1544 No. 23.
R: Romanze, Ballade, Lied
M: 4/2
L: 1/4
K: G
d2 | d2d2d2d2 | d4d4z2
d2 | d2d2=f2f2 | c4A4 | G4z2
d2 | d2d2d2d2 | d2d2z2
d2 | d2d2=f2f2 | c4A4 | G4z2
G2 | A4A4 | c4c4 | d4d4 | d6c2 | _B4G4 | =F8
A6_B2 | c4c2c2 | =f6
e2 | d6c2 | _B2AGA2A2 | G8

